!!!OTL: Das treue Maedchen.
!!!OTL-incipit: IM GARTEN WOHL IN DEM KLAREN MONDENSCHEIN
!!!ARE: Europa, Mitteleuropa, Deutschland, Niederrhein
!!!SCT: Z1091
!!!TXL: @@DE
!!!YEM: Copyright 1995, estate of Helmut Schaffrath.
**kern	**text
*ICvox	*
*M4/4	*
*met(c)	*
*k[]	*
*a:	*
!LO:TX:a:t=Vom Niederrhein.	!
{4g	Jm
=1	=1
4cc	Garten
8cc	.
8cc	wohl
4.cc	in
8a	dem
=2	=2
8.g	kla-
16g	-ren
8.g	Mondenſchein
16g	.
4.g}	.
{8e	da
=3	=3
4.a	ging
8b/	ein
4cc	Mäd-
(8bL	-chen
8aJ)	.
=4	=4
4b	fei-
4e	-ne,
4r}	.
{4g	es
=5	=5
4cc	ſchau-
8g	-te
8g	bald
4.cc	her,
8ee	es
=6	=6
8.ddL	ſchau-
16ccJ	.
8.b	-te
16a	bald
4.dd}	hin,
{8ee	es
=7	=7
4.ee	meint,
8b	es
4.cc	wär'
8a	al-
=8	=8
4g#	-lei-
4b/	-ne!
4r}	.
{4b/	es
=9	=9
4cc	ſchau-
8cc	-te
8b	bald
4.cc	her,
8ee	es
=10	=10
8.dd	ſchau-
16cc	.
8.b/	-te
16a	bald
4.dd}	hin,
{8ee	es
=11	=11
4.ee	meint,
8b	es
4.cc	wär'
8a	al-
=12	=12
4e	-lei-
4a	-ne!
4r}	.
==	==
!!!Ag: Romanze, Ballade, Tod
!!!ONB: ESAC (Essen Associative Code) Database: ZUCCAL
!!!AMT: simple quadruple
!!!AIN: vox
!!!EED: Helmut Schaffrath
!!!EEV: 1.0
!!!GTL: II. Gau- Leuschen.
!!!URL-scan:https://www.digitale-sammlungen.de/de/view/bsb11160573?page=196
!!!ENC: Anna Maria Matuszewska
!!!EEV: 2025/02/04
*-	*-
